dist/svg/keyhole-secret.svg

<!-- Generated by Trend Micro Style Portal -->
<svg version="1.1" xmlns="http://www.w3.org/2000/svg" width="16" height="16" viewBox="0 0 16 16">
  <title>keyhole-secret</title>
  <path fill="rgb(34,34,34)" d="M8-0c-4.418 0-8 3.582-8 8s3.582 8 8 8 8-3.582 8-8-3.582-8-8-8zM10 13h-4l0.67-4.69c-0.888-0.477-1.498-1.403-1.498-2.482 0-1.562 1.266-2.828 2.828-2.828s2.828 1.266 2.828 2.828c0 1.078-0.611 2.005-1.498 2.482l0.67 4.69z"></path>
</svg>

<svg width="16" height="16" viewBox="0 0 16 16" fill="rgb(34, 34, 34)" xmlns="http://www.w3.org/2000/svg"><title>keyhole-secret</title><path d="M8 0C3.582 0 0 3.582 0 8C0 12.418 3.582 16 8 16C12.418 16 16 12.418 16 8C16 3.582 12.418 0 8 0ZM10 13H6L6.67 8.31C5.782 7.833 5.172 6.907 5.172 5.828C5.172 4.266 6.438 3 8 3C9.562 3 10.828 4.266 10.828 5.828C10.828 6.906 10.217 7.833 9.33 8.31L10 13Z" fill="rgb(34, 34, 34)" fill-opacity="1.00"/></svg>
